svg/furkot/icomoon/filter.svg

<svg height="512" viewBox="0 0 512 512" width="512"><path d="m256 0c-141.385 0-256 35.817-256 80v48l192 192v160c0 17.673 28.653 32 64 32 35.346 0 64-14.327 64-32v-160l192-192v-48c0-44.183-114.615-80-256-80zm-208.808 69.412c11.972-6.829 28.791-13.31 48.639-18.744 43.972-12.038 100.854-18.668 160.169-18.668 59.314 0 116.197 6.63 160.169 18.668 19.848 5.434 36.667 11.915 48.64 18.744 7.896 4.503 12.162 8.312 14.148 10.588-1.986 2.276-6.253 6.084-14.148 10.588-11.973 6.829-28.792 13.31-48.64 18.744-43.971 12.038-100.854 18.668-160.169 18.668s-116.197-6.63-160.169-18.668c-19.848-5.434-36.667-11.915-48.639-18.744-7.896-4.504-12.162-8.312-14.149-10.588 1.987-2.276 6.253-6.084 14.149-10.588z"/></svg>

<svg width="512" height="512" viewBox="0 0 512 512" data-tags="filter, funnel" style="margin-left:8px;margin-top:8px"><path d="M 256.00,0.00C 114.615,0.00,0.00,35.817,0.00,80.00l0.00,48.00 l 192.00,192.00l0.00,160.00 c0.00,17.673, 28.653,32.00, 64.00,32.00c 35.346,0.00, 64.00-14.327, 64.00-32.00L 320.00,320.00 l 192.00-192.00L 512.00,80.00	C 512.00,35.817, 397.385,0.00, 256.00,0.00z M 47.192,69.412c 11.972-6.829, 28.791-13.31, 48.639-18.744C 139.803,38.63, 196.685,32.00, 256.00,32.00	c 59.314,0.00, 116.197,6.63, 160.169,18.668c 19.848,5.434, 36.667,11.915, 48.64,18.744c 7.896,4.503, 12.162,8.312, 14.148,10.588	c-1.986,2.276-6.253,6.084-14.148,10.588c-11.973,6.829-28.792,13.31-48.64,18.744C 372.198,121.37, 315.315,128.00, 256.00,128.00	c-59.315,0.00-116.197-6.63-160.169-18.668c-19.848-5.434-36.667-11.915-48.639-18.744C 39.296,86.084, 35.03,82.276, 33.043,80.00	C 35.03,77.724, 39.296,73.916, 47.192,69.412z"/></svg>
